theme/img/top/txt_c_sp.svg

<svg width="73" height="81" viewBox="0 0 73 81" fill="none" xmlns="http://www.w3.org/2000/svg">
<path d="M52.8245 28.7589C50.9807 20.3994 46.0991 16.2196 38.1797 16.2196C33.3434 16.2196 29.4139 17.7627 26.3913 20.8488C24.6381 22.6466 23.3535 24.6541 22.5374 26.8713C21.026 30.9462 20.2704 35.4106 20.2704 40.2646C20.2704 44.8189 20.9958 49.1335 22.4467 53.2084C23.8673 57.1035 26.225 60.0249 29.5197 61.9724C32.2099 63.5904 35.2326 64.3994 38.5877 64.3994C41.9127 64.3994 44.8296 63.5754 47.3384 61.9275C49.6356 60.3994 51.3283 58.317 52.4165 55.6803C52.8699 54.5417 53.2326 52.9088 53.5046 50.7814L72.9102 53.6129C72.0638 57.3282 71.1268 60.3395 70.0991 62.6466C67.5298 68.2795 63.827 72.5942 58.9908 75.5904C56.5726 77.0586 53.7313 78.2121 50.4668 79.0511C46.8699 79.9799 43.1066 80.4443 39.1772 80.4443C33.4945 80.4443 28.1142 79.5155 23.0361 77.6578C15.9933 75.081 10.5071 70.4219 6.57766 63.6803C4.5827 60.2646 3.07137 56.1897 2.04366 51.4556C1.28799 47.8301 0.910156 44.1147 0.910156 40.3095C0.910156 34.317 1.8623 28.6091 3.76658 23.1859C5.51973 18.1522 8.3157 13.7777 12.1545 10.0623C15.3283 6.94621 19.0311 4.62411 23.2628 3.09602C28.1595 1.32823 33.3434 0.444336 38.8144 0.444336C50.9051 0.444336 60.0336 4.45932 66.1998 12.4893C68.2552 15.126 69.7968 17.9574 70.8245 20.9837C71.157 21.9724 71.5197 23.3357 71.9127 25.0736L52.8245 28.7589Z" fill="url(#paint0_linear_31_435)"/>
<defs>
<linearGradient id="paint0_linear_31_435" x1="-2.53568" y1="-24.6627" x2="495.611" y2="241.554" gradientUnits="userSpaceOnUse">
<stop stop-color="#001F63"/>
<stop offset="1" stop-color="#00E1EC"/>
</linearGradient>
</defs>
</svg>

<svg xmlns="http://www.w3.org/2000/svg" width="73" height="81" fill="none"><path fill="url(#a)" d="M52.825 28.759q-2.766-12.54-14.645-12.54-7.255 0-11.789 4.63-2.629 2.697-3.854 6.022-2.267 6.113-2.267 13.394 0 6.83 2.177 12.943 2.13 5.843 7.073 8.764 4.035 2.427 9.068 2.427 4.988 0 8.75-2.471 3.447-2.293 5.078-6.248.681-1.707 1.089-4.899l19.405 2.832q-1.27 5.573-2.81 9.034-3.855 8.45-11.11 12.943-3.626 2.203-8.523 3.461-5.395 1.393-11.29 1.393-8.524 0-16.14-2.786-10.565-3.865-16.46-13.978-2.992-5.123-4.533-12.224A54.5 54.5 0 0 1 .91 40.309q0-8.988 2.857-17.123 2.63-7.55 8.388-13.124 4.76-4.674 11.108-6.966Q30.608.444 38.814.444 56.951.444 66.2 12.49q3.083 3.955 4.624 8.495.5 1.482 1.089 4.09z"/><defs><linearGradient id="a" x1="-2.536" x2="495.611" y1="-24.663" y2="241.554" gradientUnits="userSpaceOnUse"><stop stop-color="#001F63"/><stop offset="1" stop-color="#00E1EC"/></linearGradient></defs></svg>
